X:327
T:Hexham Races
S:Colin Hume's website,  colinhume.com  - chords can also be printed below the stave.
Q:3/8=120
M:6/8
K:G
P:A
|: B/A/ | "G"GBd gdB | "D7"ded d2B | "G"GBd "Em"gdB | "Am"ABA "D7"A2B/A/ |\
"G"GBd gdB | "D"def "C"gfe | "G/D"dcB "D7"cBA | "G"GAG G2 :|
P:B
|:d | "G"g2d edB | "D7"ded def | "G"g2d "Em"edB | "Am"ABA "D7"A2b/a/ |\
"G"g2d edB | "D"def "C"gfe | "G/D"dcB "D7"cBA | "G"GAG G2 :|

